svg/logo/apple_intelligence_line.svg

<?xml version="1.0" encoding="UTF-8"?>
<svg width="24px" height="24px" viewBox="0 0 24 24" version="1.1" xmlns="http://www.w3.org/2000/svg" xmlns:xlink="http://www.w3.org/1999/xlink">
    <title>apple_intelligence_line</title>
    <g id="页面-1" stroke="none" stroke-width="1" fill="none" fill-rule="evenodd">
        <g id="apple_intelligence_line">
            <path d="M24,0 L24,24 L0,24 L0,0 L24,0 Z M12.594,23.258 L12.582,23.26 L12.511,23.295 L12.491,23.299 L12.477,23.295 L12.406,23.259 C12.396,23.256 12.387,23.259 12.382,23.265 L12.378,23.275 L12.361,23.703 L12.366,23.723 L12.376,23.736 L12.48,23.81 L12.495,23.814 L12.507,23.81 L12.611,23.736 L12.623,23.72 L12.627,23.703 L12.61,23.276 C12.608,23.266 12.601,23.259 12.594,23.258 M12.858,23.145 L12.844,23.147 L12.66,23.24 L12.65,23.25 L12.647,23.261 L12.665,23.691 L12.67,23.703 L12.678,23.711 L12.879,23.803 C12.891,23.807 12.902,23.803 12.908,23.795 L12.912,23.781 L12.878,23.167 C12.875,23.155 12.868,23.147 12.858,23.145 M12.143,23.147 C12.1336684,23.1427606 12.1226578,23.1452075 12.116,23.153 L12.11,23.167 L12.076,23.781 C12.076,23.793 12.083,23.801 12.093,23.805 L12.108,23.803 L12.309,23.71 L12.319,23.702 L12.322,23.691 L12.34,23.261 L12.337,23.249 L12.327,23.239 L12.143,23.147 Z" id="形状"></path>
            <path d="M11.996,2 C12.764,2 13.408,2.22 13.948,2.646 C14.455,3.046 14.811,3.586 15.103,4.108 C15.23,4.335 15.348,4.562 15.463,4.792 C15.695,4.742 15.926,4.694 16.16,4.652 C16.756,4.547 17.404,4.479 18.04,4.618 C18.72,4.766 19.302,5.129 19.79,5.733 C20.309,6.372 20.537,7.054 20.516,7.785 C20.496,8.46 20.264,9.11 20.014,9.7 C19.942,9.872 19.865,10.044 19.787,10.217 C19.969,10.368 20.148,10.52 20.324,10.677 C20.782,11.085 21.244,11.557 21.534,12.147 C21.845,12.777 21.923,13.469 21.745,14.236 C21.577,14.965 21.231,15.536 20.712,15.964 C20.222,16.368 19.634,16.597 19.073,16.764 C18.821,16.84 18.541,16.912 18.253,16.983 C18.248,17.303 18.24,17.617 18.22,17.905 C18.179,18.476 18.082,19.084 17.795,19.639 C17.493,20.225 17.02,20.677 16.363,20.997 C15.64,21.35 14.937,21.425 14.241,21.253 C13.594,21.093 13.022,20.735 12.513,20.37 C12.341,20.247 12.171,20.12 12.001,19.99 C11.831,20.12 11.663,20.245 11.492,20.368 C10.982,20.733 10.41,21.093 9.763,21.254 C9.066,21.427 8.363,21.352 7.638,20.999 C6.983,20.679 6.51,20.229 6.208,19.644 C5.921,19.09 5.823,18.484 5.781,17.913 C5.76,17.623 5.751,17.309 5.748,16.986 C5.47393776,16.9207059 5.20152214,16.8486842 4.931,16.77 C4.369,16.602 3.781,16.375 3.289,15.97 C2.769,15.542 2.422,14.97 2.253,14.24 C2.076,13.474 2.153,12.784 2.463,12.153 C2.751,11.564 3.213,11.092 3.67,10.683 C3.846,10.526 4.026,10.373 4.21,10.221 L3.983,9.708 C3.733,9.118 3.499,8.468 3.478,7.791 C3.457,7.061 3.685,6.377 4.203,5.736 C4.691,5.134 5.273,4.77 5.952,4.622 C6.587,4.482 7.235,4.55 7.831,4.655 C8.065,4.696 8.297,4.743 8.531,4.794 C8.645,4.564 8.762,4.339 8.888,4.114 C9.18,3.589 9.535,3.05 10.042,2.648 C10.582,2.22 11.228,2 11.996,2 Z M7.76,17.505 L7.775,17.767 C7.809,18.237 7.88,18.527 7.983,18.725 C8.07,18.893 8.209,19.053 8.514,19.202 C8.844,19.362 9.068,19.366 9.28,19.312 C9.54,19.248 9.856,19.079 10.32,18.747 C9.84021566,18.4234259 9.33944411,18.1321165 8.821,17.875 C8.47249175,17.7373443 8.11853301,17.6139091 7.76,17.505 Z M16.238,17.503 C15.898,17.607 15.548,17.726 15.188,17.869 C14.618,18.15 14.126,18.447 13.68,18.746 C14.144,19.078 14.46,19.246 14.72,19.311 C14.932,19.364 15.157,19.36 15.485,19.2 C15.791,19.05 15.93,18.89 16.017,18.722 C16.12,18.523 16.19,18.233 16.224,17.762 L16.238,17.503 Z M14.376,7.072 C13.7935,7.18283333 13.1485,7.28394444 12.4589398,7.3382963 L11.991,7.367 L11.942,7.365 C11.099,7.323 10.313,7.206 9.617,7.073 C9.295,7.671 8.912,8.322 8.447,8.968 L8.4,9.028 C7.86233147,9.6564451 7.278366,10.2437532 6.653,10.785 C6.98086396,11.551425 7.24849063,12.342292 7.45293721,13.1502402 L7.576,13.674 L7.581,13.711 C7.6559904,14.2760011 7.70304765,14.8443592 7.722,15.414 C8.19991585,15.5408188 8.67193878,15.6885982 9.13670424,15.8568889 L9.634,16.046 L9.669,16.063 C10.4841093,16.4697798 11.263528,16.9444558 11.999,17.482 C12.5621429,17.0757143 13.2127143,16.6459184 13.9601603,16.2505481 L14.376,16.039 L14.412,16.025 C15.077,15.76 15.703,15.566 16.275,15.412 C16.2876755,15.0288723 16.3131123,14.6463266 16.3512575,14.2649988 L16.423,13.656 L16.431,13.619 C16.6457542,12.6469324 16.9510878,11.6971172 17.343,10.782 C16.8392539,10.3469073 16.3623934,9.88185191 15.9149896,9.38941827 L15.56,8.985 L15.538,8.954 C15.076,8.313 14.696,7.667 14.376,7.072 Z M5.042,12.139 L5.001,12.176 C4.592,12.54 4.371,12.803 4.257,13.034 C4.164,13.224 4.12,13.44 4.201,13.79 C4.279,14.129 4.407,14.301 4.559,14.426 C4.74,14.576 5.023,14.711 5.501,14.853 L5.693,14.908 C5.673,14.621 5.645,14.324 5.604,14.018 C5.46476966,13.3782741 5.2768901,12.7501145 5.042,12.139 Z M18.954,12.135 C18.7204836,12.7423089 18.533282,13.3664258 18.394,14.002 C18.353,14.312 18.324,14.613 18.304,14.905 L18.499,14.849 C18.975,14.706 19.257,14.57 19.439,14.421 C19.589,14.296 19.718,14.124 19.796,13.786 C19.876,13.435 19.832,13.218 19.739,13.029 C19.63925,12.826875 19.4568125,12.60025 19.1374238,12.3015605 L18.954,12.135 Z M6.379,6.576 C6.178,6.62 5.982,6.718 5.758,6.995 C5.523,7.285 5.471,7.505 5.478,7.732 C5.486,8.002 5.582,8.347 5.798,8.865 C6.141,8.544 6.492,8.185 6.848,7.766 C7.0595,7.47125 7.245125,7.18775 7.41204688,6.91296875 L7.57158507,6.641 L7.483,6.624 C6.959,6.532 6.624,6.522 6.379,6.576 Z M16.6964941,6.59097656 L16.42,6.638 C16.626,6.994 16.86,7.364 17.138,7.754 C17.498,8.177 17.851,8.538 18.196,8.861 C18.412,8.343 18.508,7.999 18.516,7.728 C18.523,7.501 18.47,7.28 18.236,6.991 C18.011,6.714 17.816,6.616 17.614,6.572 C17.399625,6.525625 17.1163438,6.52748437 16.6964941,6.59097656 L16.6964941,6.59097656 Z M11.995,4 C11.641,4 11.443,4.09 11.283,4.216 C11.09,4.369 10.889,4.629 10.634,5.086 L10.566,5.212 C11.004,5.282 11.473,5.338 11.991,5.365 C12.513,5.338 12.985,5.282 13.426,5.211 L13.356,5.083 C13.101,4.627 12.9,4.368 12.707,4.215 C12.547,4.089 12.349,4 11.995,4 Z" id="形状" fill="#09244B" fill-rule="nonzero"></path>
        </g>
    </g>
</svg>

<svg xmlns="http://www.w3.org/2000/svg" width="24" height="24"><g fill="none" fill-rule="evenodd"><path d="M24 0v24H0V0zM12.594 23.258l-.012.002-.071.035-.02.004-.014-.004-.071-.036c-.01-.003-.019 0-.024.006l-.004.01-.017.428.005.02.01.013.104.074.015.004.012-.004.104-.074.012-.016.004-.017-.017-.427c-.002-.01-.009-.017-.016-.018m.264-.113-.014.002-.184.093-.01.01-.003.011.018.43.005.012.008.008.201.092c.012.004.023 0 .029-.008l.004-.014-.034-.614c-.003-.012-.01-.02-.02-.022m-.715.002a.023.023 0 0 0-.027.006l-.006.014-.034.614c0 .012.007.02.017.024l.015-.002.201-.093.01-.008.003-.011.018-.43-.003-.012-.01-.01z"/><path fill="#09244B" d="M10.04 2.648C10.582 2.22 11.228 2 11.996 2s1.412.22 1.952.646c.507.4.863.94 1.155 1.462.127.227.245.454.36.684.232-.05.463-.098.697-.14.596-.105 1.244-.173 1.88-.034.68.148 1.262.511 1.75 1.115.519.639.747 1.321.726 2.052-.02.675-.252 1.325-.502 1.915-.072.172-.149.344-.227.517.182.151.361.303.537.46.458.408.92.88 1.21 1.47.311.63.389 1.322.211 2.089-.168.729-.514 1.3-1.033 1.728-.49.404-1.078.633-1.639.8-.252.076-.532.148-.82.219-.005.32-.013.634-.033.922-.041.571-.138 1.179-.425 1.734-.302.586-.775 1.038-1.432 1.358-.723.353-1.426.428-2.122.256-.647-.16-1.219-.518-1.728-.883-.172-.123-.342-.25-.512-.38-.17.13-.338.255-.509.378-.51.365-1.082.725-1.729.886-.697.173-1.4.098-2.125-.255-.655-.32-1.128-.77-1.43-1.355-.287-.554-.385-1.16-.427-1.731-.021-.29-.03-.604-.033-.927a17.19 17.19 0 0 1-.817-.216c-.562-.168-1.15-.395-1.642-.8-.52-.428-.867-1-1.036-1.73-.177-.766-.1-1.456.21-2.087.288-.589.75-1.061 1.207-1.47.176-.157.356-.31.54-.462a24.412 24.412 0 0 1-.227-.513c-.25-.59-.484-1.24-.505-1.917-.021-.73.207-1.414.725-2.055.488-.602 1.07-.966 1.749-1.114.635-.14 1.283-.072 1.879.033.234.041.466.088.7.139.114-.23.231-.455.357-.68.292-.525.647-1.064 1.154-1.466M7.573 6.641a8.17 8.17 0 0 0-.09-.017c-.524-.092-.859-.102-1.104-.048-.201.044-.397.142-.621.419-.235.29-.287.51-.28.737.008.27.104.615.32 1.133.343-.321.694-.68 1.05-1.099.282-.393.518-.766.725-1.125m-.92 4.144A16.57 16.57 0 0 0 8.4 9.028l.024-.03.023-.03c.465-.646.848-1.297 1.17-1.895.696.133 1.482.25 2.325.292l.049.002.049-.002c.848-.041 1.637-.16 2.336-.293.32.595.7 1.241 1.162 1.882l.022.031.025.03a16.512 16.512 0 0 0 1.758 1.767 15.942 15.942 0 0 0-.912 2.837l-.008.037-.005.038a17.256 17.256 0 0 0-.143 1.718c-.572.154-1.198.348-1.863.613l-.036.014-.034.017c-.91.446-1.686.952-2.343 1.426a16.232 16.232 0 0 0-2.33-1.419l-.035-.017-.035-.014a16.845 16.845 0 0 0-1.877-.618 17.321 17.321 0 0 0-.141-1.703l-.005-.037-.008-.037a15.894 15.894 0 0 0-.916-2.852m-1.61 1.354a5.389 5.389 0 0 0-.041.037c-.409.364-.63.627-.744.858-.093.19-.137.406-.056.756.078.339.206.511.358.636.181.15.464.285.942.427l.192.055c-.02-.287-.048-.584-.089-.89a12.86 12.86 0 0 0-.562-1.879m2.718 5.366c.004.09.009.177.015.262.034.47.105.76.208.958.087.168.226.328.531.477.33.16.554.164.766.11.26-.064.576-.233 1.04-.565a13.053 13.053 0 0 0-1.499-.872 13.83 13.83 0 0 0-1.061-.37m5.92 1.241c.464.332.78.5 1.04.565.212.053.437.049.765-.111.306-.15.445-.31.532-.478.103-.199.173-.489.207-.96.006-.085.01-.17.014-.259-.34.104-.69.223-1.05.366-.57.281-1.062.578-1.508.877m4.624-3.841.195-.056c.476-.143.758-.279.94-.428.15-.125.279-.297.357-.635.08-.351.036-.568-.057-.757-.114-.231-.336-.494-.747-.86a7.73 7.73 0 0 0-.038-.034 12.891 12.891 0 0 0-.56 1.867c-.041.31-.07.611-.09.903m-.108-6.044c.216-.518.312-.862.32-1.133.007-.227-.046-.448-.28-.737-.225-.277-.42-.375-.622-.419-.245-.053-.58-.043-1.106.05l-.088.016c.206.356.44.726.718 1.116.36.423.713.784 1.058 1.107m-4.77-3.65a8.621 8.621 0 0 0-.07-.128c-.255-.456-.456-.715-.649-.868-.16-.126-.358-.215-.712-.215s-.552.09-.712.216c-.193.153-.394.413-.649.87l-.068.126c.438.07.907.126 1.425.153.522-.027.994-.083 1.435-.154"/></g></svg>
